projects/oblique/icons/AudioLow.svg

<?xml version="1.0" encoding="UTF-8"?><svg id="a" xmlns="http://www.w3.org/2000/svg" viewBox="0 0 24 24"><path d="M2.25,7.60401v8.61816h6.5415l6.64941,6.65918V.97119l-6.62256,6.63281H2.25ZM8.37061,14.72217H3.75v-5.61816h4.62061v5.61816ZM9.87061,8.67334l4.07031-4.07715v14.66016l-4.07031-4.07715v-6.50586ZM17.03174,14.15576l-1.06055-1.06055c.31592-.31641.48975-.73535.48975-1.18164,0-.44727-.17383-.86621-.48975-1.18262l1.06055-1.06055c1.23633,1.23633,1.23633,3.24902,0,4.48535Z"/></svg>

<svg xmlns="http://www.w3.org/2000/svg" viewBox="0 0 24 24"><title>AudioLow</title><path d="M2.25,7.604v8.61816H8.7915l6.64942,6.65918V.97119L8.81836,7.604Zm6.12061,7.11816H3.75V9.104H8.37061Zm1.5-6.04883,4.07031-4.07715V19.25635L9.87061,15.1792Z" fill="#171717"/><path d="M17.03174,9.67041,15.97119,10.731a1.67155,1.67155,0,0,1,0,2.36426l1.06055,1.06054A3.17573,3.17573,0,0,0,17.03174,9.67041Z" fill="#171717"/></svg>
